X:7773
T:Unlucky For Some
O:england
M:13/12
L:1/8
Q:200
C:me
R:
N:The bastard offspring of 'The Mentalpiece
K:Bm
|:BBf BBg BBf BgBg|BBf BBg BBf BgBg|
cce cca cce caca|cce cca cce gedc:|
|:dBf ecg dBf- faea|dBf ecg dBf- faea|
ecc acc ecc- cacg|ecc acc ecc- cacg:|
